Papirus/48x48/apps/synfig_icon.svg

<svg xmlns="http://www.w3.org/2000/svg" width="48" height="48" version="1.1" viewBox="0 0 12.7 12.7">
 <path style="opacity:0.2" d="m 6.3650571,1.3230344 c -0.037364,-0.00104 -0.073461,0.012369 -0.099328,0.036896 -0.3732205,0.353944 -0.7525418,0.7510808 -1.0953646,1.1290903 -3.986e-4,4.745e-4 -7.921e-4,9.525e-4 -0.00118,0.00143 C 4.3243845,3.4479372 3.6822632,4.4317492 3.2169193,5.4851216 2.7834359,6.4663729 2.5299904,7.3152435 2.2993199,8.5517907 2.2488059,8.8225742 2.1977611,9.1506955 2.1625466,9.414728 c -0.017607,0.1320162 -0.031278,0.2478387 -0.039022,0.3334971 -0.00387,0.04283 -0.00613,0.077966 -0.0067,0.1063896 -2.864e-4,0.014212 -3.317e-4,0.026061 0.00118,0.040836 7.572e-4,0.00738 0.00147,0.015271 0.00552,0.028657 0.00405,0.013387 7.45e-4,0.040559 0.059912,0.073792 0.031928,0.017933 0.036225,0.014391 0.044146,0.016119 0.00792,0.0017 0.014056,0.003 0.020496,0.0039 0.012881,0.0019 0.026558,0.0031 0.042175,0.0046 0.031234,0.003 0.06991,0.0059 0.1107583,0.0079 0.3239047,0.01611 0.8015485,0.09091 1.1182257,0.175166 0.213793,0.05688 0.3545476,0.103935 0.5632516,0.188062 0.048218,0.01944 0.092435,0.03721 0.1253421,0.05015 0.016454,0.0064 0.029962,0.01151 0.040204,0.0154 0.00482,0.0018 0.00909,0.0032 0.013007,0.0046 2.46e-4,9.3e-5 5.424e-4,2.71e-4 7.884e-4,3.59e-4 6.3e-5,2.3e-5 3.254e-4,-3.5e-5 3.935e-4,0 1.387e-4,4.6e-5 2.56e-4,3.08e-4 3.935e-4,3.57e-4 0.00147,6.93e-4 0.00298,0.0013 0.00552,0.0025 -1.501e-4,-3.15e-4 -6.849e-4,-8.99e-4 -0.00118,-0.0011 7.416e-4,2.5e-4 0.00104,4.17e-4 0.00197,7.16e-4 0.00166,5.39e-4 0.00347,0.0014 0.00749,0.0025 0.00159,4.29e-4 0.0028,0.0012 0.00473,0.0021 -9.296e-4,-1.97e-4 -0.00443,-1.47e-4 -0.00512,-3.57e-4 0.00925,0.0045 0.020228,0.01013 0.03508,0.01756 0.035328,0.01766 0.083864,0.04211 0.1367727,0.06914 0.5111055,0.261048 0.8933337,0.530246 1.5037121,1.061746 0.080417,0.07002 0.1553523,0.133547 0.2120569,0.180541 0.028352,0.0235 0.051899,0.04283 0.070554,0.05731 0.00933,0.0072 0.017212,0.01314 0.02562,0.01898 0.0042,0.0029 0.00827,0.0059 0.015372,0.01003 0.00355,0.002 0.00791,0.0044 0.015766,0.0079 0.00786,0.0034 0.015682,0.01021 0.052029,0.01182 0.043544,0.0019 0.05258,-0.0067 0.061489,-0.01038 0.00891,-0.0036 0.013483,-0.0061 0.017343,-0.0082 0.00772,-0.0043 0.012058,-0.0073 0.016555,-0.01038 0.00899,-0.0061 0.017111,-0.01235 0.027197,-0.02006 0.020172,-0.01542 0.045935,-0.03632 0.076861,-0.06162 0.061843,-0.05054 0.143669,-0.119264 0.2317569,-0.195176 0.5049161,-0.435122 0.7493262,-0.619057 1.1008828,-0.831055 0.7677391,-0.46297 1.4518744,-0.668465 2.5021139,-0.749025 l 0.08514,-0.0064 c 0.06844,-0.0052 0.121067,-0.057225 0.121006,-0.1196438 v -0.045467 c 10e-7,-0.094843 -0.02483,-0.290729 -0.05833,-0.5333805 -0.03351,-0.242649 -0.07636,-0.5188335 -0.1151,-0.7286045 C 10.179507,7.3388722 9.9175644,6.4601297 9.4785097,5.4664945 9.0829824,4.5713672 8.516731,3.6671551 7.8399957,2.8486674 c -0.00152,-0.00184 -0.0031,-0.00362 -0.00473,-0.00538 C 7.3797447,2.3532455 6.9391213,1.8389027 6.4584725,1.3620797 6.4344215,1.3381243 6.4007225,1.3240384 6.3650571,1.3230344 Z"/>
 <path style="fill:#0278dc" d="M 6.3650571,1.058451 C 6.3276931,1.057411 6.2915961,1.07082 6.2657291,1.095347 5.8925086,1.449291 5.5131873,1.8464278 5.1703645,2.2244373 c -3.986e-4,4.745e-4 -7.921e-4,9.525e-4 -0.00118,0.00143 C 4.3243845,3.1833538 3.6822632,4.1671658 3.2169193,5.2205382 2.7834359,6.2017895 2.5299904,7.0506601 2.2993199,8.2872073 2.2488059,8.5579908 2.1977611,8.8861121 2.1625466,9.1501446 c -0.017607,0.1320162 -0.031278,0.2478387 -0.039022,0.3334971 -0.00387,0.04283 -0.00613,0.077966 -0.0067,0.1063896 -2.864e-4,0.014212 -3.317e-4,0.026061 0.00118,0.040836 7.572e-4,0.00738 0.00147,0.015271 0.00552,0.028657 0.00405,0.013387 7.45e-4,0.040559 0.059912,0.073792 0.031928,0.017933 0.036225,0.014391 0.044146,0.016119 0.00792,0.00173 0.014056,0.00299 0.020496,0.00394 0.012881,0.00191 0.026558,0.00314 0.042175,0.00465 0.031234,0.00303 0.06991,0.00585 0.1107583,0.00789 0.3239047,0.016115 0.8015485,0.090915 1.1182257,0.1751666 0.213793,0.056878 0.3545476,0.1039351 0.5632516,0.1880621 0.048218,0.01944 0.092435,0.03721 0.1253421,0.05015 0.016454,0.0064 0.029962,0.01151 0.040204,0.0154 0.00482,0.0018 0.00909,0.0032 0.013007,0.0046 2.46e-4,9.3e-5 5.424e-4,2.71e-4 7.884e-4,3.59e-4 6.3e-5,2.3e-5 3.254e-4,-3.5e-5 3.935e-4,0 1.387e-4,4.6e-5 2.56e-4,3.08e-4 3.935e-4,3.57e-4 0.00147,6.93e-4 0.00298,0.0013 0.00552,0.0025 -1.501e-4,-3.15e-4 -6.849e-4,-8.99e-4 -0.00118,-0.0011 7.416e-4,2.5e-4 0.00104,4.17e-4 0.00197,7.16e-4 0.00166,5.39e-4 0.00347,0.0014 0.00749,0.0025 0.00159,4.29e-4 0.0028,0.0012 0.00473,0.0021 -9.296e-4,-1.97e-4 -0.00443,-1.47e-4 -0.00512,-3.57e-4 0.00925,0.0045 0.020228,0.01013 0.03508,0.01756 0.035328,0.01766 0.083864,0.04211 0.1367727,0.06914 0.5111055,0.261048 0.8933337,0.530246 1.5037121,1.061746 0.080417,0.07002 0.1553523,0.133547 0.2120569,0.180541 0.028352,0.0235 0.051899,0.04283 0.070554,0.05731 0.00933,0.0072 0.017212,0.01314 0.02562,0.01898 0.0042,0.0029 0.00827,0.0059 0.015372,0.01003 0.00355,0.002 0.00791,0.0044 0.015766,0.0079 0.00786,0.0034 0.015682,0.01021 0.052029,0.01182 0.043544,0.0019 0.05258,-0.0067 0.061489,-0.01038 0.00891,-0.0036 0.013483,-0.0061 0.017343,-0.0082 0.00772,-0.0043 0.012058,-0.0073 0.016555,-0.01038 0.00899,-0.0061 0.017111,-0.01235 0.027197,-0.02006 0.020172,-0.01542 0.045935,-0.03632 0.076861,-0.06162 0.061843,-0.05054 0.143669,-0.119264 0.2317569,-0.195176 0.5049161,-0.435122 0.7493262,-0.619057 1.1008828,-0.831055 0.7677391,-0.46297 1.4518744,-0.6684654 2.5021139,-0.7490257 l 0.08514,-0.00645 c 0.06844,-0.0052 0.121067,-0.057225 0.121006,-0.1196435 v -0.045467 c 10e-7,-0.094843 -0.02483,-0.290729 -0.05833,-0.5333805 -0.03351,-0.242649 -0.07636,-0.5188335 -0.1151,-0.7286045 C 10.179507,7.0742888 9.9175644,6.1955463 9.4785097,5.2019111 9.0829824,4.3067838 8.516731,3.4025717 7.8399957,2.584084 7.8384757,2.582244 7.8368957,2.580464 7.8352657,2.578704 7.3797447,2.0886621 6.9391213,1.5743193 6.4584725,1.0974963 6.4344215,1.0735409 6.4007225,1.059455 6.3650571,1.058451 Z"/>
 <path style="fill:#48a0f8;fill-rule:evenodd" transform="scale(0.26458333)" d="M 24.056641 4 C 23.915422 3.9960693 23.779406 4.0479245 23.681641 4.140625 C 22.487098 5.2734706 21.291947 6.5201961 20.162109 7.7441406 L 24.011719 29.642578 L 27.822266 7.7792969 C 26.710476 6.550223 25.592907 5.3217739 24.410156 4.1484375 C 24.319255 4.0578974 24.191439 4.0037946 24.056641 4 z M 24.011719 29.642578 L 35.720703 19.515625 C 34.917586 17.736774 33.92652 15.956 32.800781 14.214844 L 24.011719 29.642578 z M 24.011719 29.642578 L 38.5 27.597656 C 38.143573 26.150809 37.740552 24.798704 37.285156 23.484375 L 24.011719 29.642578 z M 24.011719 29.642578 L 39.5 36.851562 L 39.542969 36.847656 C 39.80164 36.828003 40.000231 36.630444 40 36.394531 L 40 36.246094 C 40.000004 35.888773 39.90591 35.152465 39.779297 34.238281 C 39.715527 33.777972 39.635732 33.331772 39.560547 32.855469 L 39.279297 31.839844 L 24.011719 29.642578 z M 24.011719 29.642578 L 29.6875 39.675781 L 29.994141 39.570312 C 31.071594 38.936356 32.116534 38.435456 33.207031 38.042969 L 24.011719 29.642578 z M 24.011719 29.642578 L 21.609375 42.173828 C 21.900398 42.417369 22.173409 42.636732 22.494141 42.916016 C 22.798079 43.180658 23.080605 43.420041 23.294922 43.597656 C 23.402079 43.686475 23.491993 43.759726 23.5625 43.814453 C 23.59776 43.841663 23.626433 43.864719 23.658203 43.886719 C 23.674073 43.897679 23.689957 43.908328 23.716797 43.923828 C 23.720197 43.925728 23.728402 43.929441 23.732422 43.931641 L 24.011719 43.980469 L 24.804688 43.513672 C 25.029431 43.328856 25.300396 43.104971 25.603516 42.84375 C 25.896207 42.591517 26.057211 42.477001 26.308594 42.265625 L 24.011719 29.642578 z M 24.011719 29.642578 L 14.902344 38.085938 C 15.075512 38.150598 15.232807 38.203842 15.429688 38.283203 C 15.611929 38.356677 15.779924 38.423749 15.904297 38.472656 C 15.966485 38.496845 16.015978 38.516548 16.054688 38.53125 C 16.072905 38.538053 16.090664 38.543537 16.105469 38.548828 C 16.105469 38.548828 16.107422 38.550781 16.107422 38.550781 C 16.107422 38.550781 16.109375 38.550781 16.109375 38.550781 C 16.109375 38.550781 16.111328 38.550781 16.111328 38.550781 C 16.116884 38.5534 16.121259 38.556011 16.130859 38.560547 C 16.130292 38.559356 16.128824 38.5574 16.126953 38.556641 C 16.129756 38.557586 16.131251 38.557464 16.134766 38.558594 C 16.14104 38.560631 16.146916 38.564202 16.162109 38.568359 C 16.168119 38.569981 16.174346 38.57277 16.181641 38.576172 C 16.178127 38.575427 16.164717 38.576966 16.162109 38.576172 C 16.19707 38.59318 16.238788 38.614496 16.294922 38.642578 C 16.428445 38.709325 16.610577 38.800183 16.810547 38.902344 C 17.324652 39.164924 17.804849 39.433699 18.275391 39.71875 L 24.011719 29.642578 z M 24.011719 29.642578 L 8.6484375 31.625 C 8.4730656 32.591908 8.2961359 33.699161 8.1738281 34.613281 C 8.107282 35.110649 8.0546593 35.546424 8.0253906 35.869141 C 8.0110482 36.027364 8.0023583 36.155764 8 36.261719 C 7.9999533 36.263819 8.0000419 36.26745 8 36.269531 C 7.9994133 36.31319 8.0010125 36.353018 8.0058594 36.400391 C 8.0087212 36.428284 8.0100835 36.45722 8.0253906 36.507812 C 8.0406977 36.558409 8.0283298 36.661504 8.2519531 36.787109 C 8.3726259 36.854888 8.3899842 36.841125 8.4199219 36.847656 C 8.4498557 36.854195 8.4717536 36.859691 8.4960938 36.863281 C 8.5447778 36.8705 8.5972251 36.875152 8.65625 36.880859 C 8.7742998 36.892311 8.9198315 36.902446 9.0742188 36.910156 C 9.2979643 36.921288 9.5571966 36.945889 9.8125 36.970703 L 24.011719 29.642578 z M 24.011719 29.642578 L 10.722656 23.484375 C 10.285468 24.742867 9.8975857 26.039555 9.5527344 27.423828 L 24.011719 29.642578 z M 24.011719 29.642578 L 15.25 14.126953 C 14.186202 15.762527 13.264299 17.435975 12.464844 19.154297 L 24.011719 29.642578 z"/>
 <path style="opacity:0.2;fill:#ffffff" transform="scale(0.26458333)" d="M 24.056641 4 C 23.915422 3.9960693 23.779406 4.0479245 23.681641 4.140625 C 22.271043 5.4783661 20.836724 6.9795058 19.541016 8.4082031 C 19.539509 8.4099965 19.538575 8.4103047 19.537109 8.4121094 C 16.344164 12.030956 13.916983 15.749219 12.158203 19.730469 C 10.519841 23.439135 9.5612786 26.648701 8.6894531 31.322266 C 8.4985341 32.345699 8.3069223 33.586066 8.1738281 34.583984 C 8.107282 35.082943 8.0546593 35.520002 8.0253906 35.84375 C 8.0107639 36.005627 8.0021543 36.138666 8 36.246094 C 7.9989175 36.299808 8.0001459 36.344548 8.0058594 36.400391 C 8.0087212 36.428284 8.0100835 36.45722 8.0253906 36.507812 C 8.0317075 36.528693 8.039291 36.563035 8.0546875 36.599609 C 8.0850559 36.304587 8.1201818 35.986221 8.1738281 35.583984 C 8.3069223 34.586066 8.4985341 33.345699 8.6894531 32.322266 C 9.5612786 27.648701 10.519841 24.439135 12.158203 20.730469 C 13.916983 16.749219 16.344164 13.030956 19.537109 9.4121094 C 19.538575 9.4103047 19.539509 9.4099965 19.541016 9.4082031 C 20.836724 7.9795058 22.271043 6.4783661 23.681641 5.140625 C 23.779406 5.0479245 23.915422 4.9960693 24.056641 5 C 24.191439 5.0037946 24.319255 5.0578974 24.410156 5.1484375 C 26.226782 6.9506032 27.891627 8.8939669 29.613281 10.746094 C 29.619442 10.752746 29.625114 10.760624 29.630859 10.767578 C 32.188599 13.861075 34.329312 17.276998 35.824219 20.660156 C 37.483638 24.415628 38.472954 27.737655 39.34375 32.453125 C 39.490169 33.24596 39.652645 34.289933 39.779297 35.207031 C 39.855291 35.757484 39.91004 36.205236 39.949219 36.583984 C 39.979131 36.525628 40.000067 36.462805 40 36.394531 L 40 36.222656 C 40.000004 35.864195 39.905911 35.124139 39.779297 34.207031 C 39.652645 33.289933 39.490169 32.24596 39.34375 31.453125 C 38.472954 26.737541 37.483638 23.415628 35.824219 19.660156 C 34.329312 16.276998 32.188599 12.861075 29.630859 9.7675781 C 29.625114 9.7606238 29.619442 9.7527457 29.613281 9.7460938 C 27.891627 7.8939669 26.226782 5.9506032 24.410156 4.1484375 C 24.319255 4.0578974 24.191439 4.0037946 24.056641 4 z"/>
</svg>

<svg xmlns="http://www.w3.org/2000/svg" width="48" height="48" version="1.1">
 <path style="opacity:0.2" d="m 24.057082,5.0012025 c -0.141216,-0.00393 -0.277644,0.046749 -0.375408,0.1394479 -1.410581,1.337726 -2.84422,2.8386985 -4.139914,4.2673796 -0.0015,0.00179 -0.003,0.0036 -0.0045,0.0054 -3.192909,3.618805 -5.619796,7.337108 -7.378556,11.318313 -1.638344,3.708624 -2.5962378,6.916918 -3.4680535,11.590429 -0.1909169,1.023422 -0.3838399,2.263552 -0.5169326,3.261458 -0.066545,0.498954 -0.1182147,0.936703 -0.147483,1.260448 -0.014627,0.161875 -0.023168,0.294671 -0.025323,0.402098 -0.00108,0.05371 -0.00125,0.0985 0.00446,0.154339 0.00286,0.02789 0.00556,0.05772 0.020863,0.108308 0.015307,0.0506 0.00282,0.153292 0.2264365,0.278896 0.1206713,0.06778 0.1369118,0.05439 0.1668491,0.06092 0.029934,0.0064 0.053124,0.01134 0.077464,0.01474 0.048684,0.0072 0.1003756,0.01172 0.1593998,0.01739 0.1180484,0.01134 0.2642238,0.0223 0.4186093,0.02986 1.2241934,0.06089 3.0294404,0.343593 4.2263174,0.662037 0.808027,0.214977 1.340007,0.392821 2.128801,0.710778 0.182239,0.07347 0.349356,0.140634 0.473728,0.189541 0.06219,0.02419 0.113241,0.0435 0.151951,0.0582 0.01822,0.0068 0.03435,0.01209 0.04916,0.01739 9.29e-4,3.51e-4 0.0021,10e-4 0.003,0.0014 2.38e-4,8.6e-5 0.0012,-1.33e-4 0.0015,0 5.25e-4,1.73e-4 9.68e-4,0.0012 0.0015,0.0013 0.0056,0.0026 0.01126,0.0049 0.02086,0.0094 -5.67e-4,-0.0012 -0.0026,-0.0034 -0.0045,-0.0042 0.0028,9.45e-4 0.0039,0.0016 0.0074,0.0027 0.0063,0.002 0.01312,0.0053 0.02831,0.0094 0.006,0.0016 0.01058,0.0045 0.01788,0.0079 -0.0035,-7.45e-4 -0.01674,-5.56e-4 -0.01935,-0.0013 0.03496,0.01701 0.07645,0.03829 0.132584,0.06637 0.133522,0.06675 0.316963,0.159154 0.51693,0.261314 1.931716,0.986627 3.376341,2.004057 5.683257,4.012853 0.303935,0.264639 0.587152,0.504739 0.801466,0.682352 0.107156,0.08882 0.196152,0.161875 0.266658,0.216602 0.03526,0.02721 0.06505,0.04966 0.09683,0.07174 0.01587,0.01096 0.03126,0.0223 0.0581,0.03791 0.01342,0.0076 0.02989,0.01663 0.05959,0.02986 0.02971,0.01285 0.05927,0.03859 0.196643,0.04467 0.164574,0.0072 0.198725,-0.02532 0.232396,-0.03923 0.03368,-0.01361 0.05096,-0.02305 0.06555,-0.03099 0.02918,-0.01625 0.04557,-0.02759 0.06257,-0.03923 0.03398,-0.02305 0.06467,-0.04668 0.102791,-0.07582 0.07624,-0.05828 0.173611,-0.137271 0.290495,-0.232892 0.233735,-0.191015 0.542995,-0.450756 0.875922,-0.737665 1.908322,-1.644537 2.832067,-2.339716 4.16077,-3.140959 2.901658,-1.749788 5.487337,-2.526454 9.456701,-2.830929 l 0.321785,-0.02419 C 39.801327,37.82742 40.00023,37.630792 40,37.394875 v -0.171839 c 3e-6,-0.358458 -0.09385,-1.098806 -0.220458,-2.015903 -0.12665,-0.917089 -0.288601,-1.960924 -0.435018,-2.75375 -0.870786,-4.715413 -1.860794,-8.036607 -3.520195,-11.792036 -1.494889,-3.38312 -3.635028,-6.800576 -6.192739,-9.894038 -0.0057,-0.007 -0.01172,-0.01368 -0.01788,-0.02033 C 27.892079,8.8948697 26.226749,6.9509189 24.410145,5.1487736 24.319244,5.0582346 24.191879,5.0049971 24.057082,5.0012025 Z"/>
 <path style="fill:#0278dc" d="m 24.057082,4.0012136 c -0.141216,-0.00393 -0.277644,0.046748 -0.375408,0.1394479 -1.410581,1.3377259 -2.84422,2.8386984 -4.139914,4.2673796 -0.0015,0.00179 -0.003,0.0036 -0.0045,0.0054 C 16.344391,12.032251 13.917504,15.750554 12.158744,19.731759 10.5204,23.440383 9.5625062,26.648677 8.6906905,31.322188 8.4997736,32.34561 8.3068506,33.58574 8.1737579,34.583647 c -0.066545,0.498953 -0.1182147,0.936702 -0.147483,1.260447 -0.014627,0.161875 -0.023168,0.294671 -0.025323,0.402098 -0.00108,0.05371 -0.00125,0.0985 0.00446,0.154339 0.00286,0.02789 0.00556,0.05772 0.020863,0.108308 0.015307,0.0506 0.00282,0.153293 0.2264365,0.278896 0.1206713,0.06778 0.1369118,0.05439 0.1668491,0.06092 0.029934,0.0065 0.053124,0.0113 0.077464,0.01489 0.048684,0.0072 0.1003756,0.01187 0.1593998,0.01757 0.1180484,0.01145 0.2642238,0.02211 0.4186093,0.02982 1.2241934,0.06091 3.0294404,0.343611 4.2263174,0.662039 0.808027,0.21497 1.340007,0.392821 2.128801,0.710778 0.182239,0.07347 0.349356,0.140635 0.473728,0.189541 0.06219,0.02419 0.113241,0.0435 0.151951,0.0582 0.01822,0.0068 0.03435,0.01209 0.04916,0.01739 9.29e-4,3.51e-4 0.0021,0.001 0.003,0.0014 2.38e-4,8.7e-5 0.0012,-1.33e-4 0.0015,0 5.25e-4,1.73e-4 9.68e-4,0.0012 0.0015,0.0013 0.0056,0.0026 0.01126,0.0049 0.02086,0.0094 -5.67e-4,-0.0012 -0.0026,-0.0034 -0.0045,-0.0042 0.0028,9.45e-4 0.0039,0.0016 0.0074,0.0027 0.0063,0.002 0.01312,0.0053 0.02831,0.0094 0.006,0.0016 0.01058,0.0045 0.01788,0.0079 -0.0035,-7.45e-4 -0.01674,-5.56e-4 -0.01935,-0.0013 0.03496,0.01701 0.07645,0.03829 0.132584,0.06637 0.133522,0.06675 0.316963,0.159154 0.51693,0.261314 1.931716,0.986627 3.376341,2.004057 5.683257,4.012853 0.303935,0.264639 0.587152,0.504739 0.801466,0.682352 0.107156,0.08882 0.196152,0.161875 0.266658,0.216602 0.03526,0.02721 0.06505,0.04966 0.09683,0.07173 0.01587,0.01096 0.03126,0.0223 0.0581,0.03791 0.01342,0.0076 0.02989,0.01663 0.05959,0.02986 0.02971,0.01285 0.05927,0.03859 0.196643,0.04467 0.164574,0.0072 0.198725,-0.02532 0.232396,-0.03923 0.03368,-0.01361 0.05096,-0.02305 0.06555,-0.03099 0.02918,-0.01625 0.04557,-0.02759 0.06257,-0.03923 0.03398,-0.02305 0.06467,-0.04668 0.102791,-0.07582 0.07624,-0.05828 0.173611,-0.137271 0.290495,-0.232892 0.233735,-0.191015 0.542995,-0.450756 0.875922,-0.737665 1.908322,-1.644537 2.832067,-2.339716 4.16077,-3.140959 2.901658,-1.749788 5.487337,-2.526455 9.456701,-2.830932 l 0.321785,-0.02438 C 39.801327,36.827544 40.00023,36.630917 40,36.395007 v -0.171842 c 3e-6,-0.358458 -0.09385,-1.098806 -0.220458,-2.015903 -0.12665,-0.917089 -0.288601,-1.960924 -0.435018,-2.75375 C 38.473738,26.737981 37.48373,23.416787 35.824329,19.661358 34.32944,16.278238 32.189301,12.860782 29.63159,9.7673203 29.62589,9.7603703 29.61987,9.7536383 29.61371,9.7469863 27.892079,7.8948808 26.226749,5.95093 24.410145,4.1487847 24.319244,4.0582456 24.191879,4.0050082 24.057082,4.0012136 Z"/>
 <path style="fill:#48a0f8;fill-rule:evenodd" d="m 24.056814,4.0007688 c -0.141217,-0.00393 -0.277232,0.047923 -0.374995,0.1406234 -1.19453,1.1328328 -2.389667,2.3795441 -3.519493,3.6034748 L 24.011893,29.643056 27.822397,7.7800229 C 26.710619,6.5509629 25.593063,5.3225277 24.410325,4.1492046 24.319425,4.0586655 24.191611,4.0045634 24.056814,4.0007688 Z M 24.011893,29.643056 35.720744,19.516218 c -0.803108,-1.778831 -1.794162,-3.559585 -2.919889,-5.300721 z m 0,0 14.488117,-2.044899 c -0.356423,-1.44683 -0.75944,-2.79892 -1.214831,-4.113234 z m 0,0 15.488105,7.208903 0.04297,-0.0039 c 0.258667,-0.01966 0.457256,-0.217216 0.457025,-0.453126 v -0.148436 c 4e-6,-0.357316 -0.09409,-1.093616 -0.220701,-2.00779 -0.06377,-0.460304 -0.143563,-0.906499 -0.218747,-1.382796 l -0.281247,-1.015614 z m 0,0 5.675717,10.03309 0.306637,-0.105468 c 1.077441,-0.633949 2.122369,-1.134843 3.212854,-1.527326 z m 0,0 -2.402317,12.531108 c 0.29102,0.243539 0.564028,0.462899 0.884756,0.74218 0.303935,0.264639 0.586457,0.504019 0.800772,0.681632 0.107156,0.08882 0.197069,0.162068 0.267575,0.216795 0.03526,0.02721 0.06393,0.05027 0.0957,0.07227 0.01587,0.01096 0.03175,0.02161 0.05859,0.03711 0.0034,0.0019 0.0116,0.0056 0.01563,0.0078 l 0.279294,0.04883 0.79296,-0.466792 c 0.22474,-0.184814 0.495702,-0.408696 0.798819,-0.669914 0.292688,-0.25223 0.45369,-0.366745 0.70507,-0.578119 z m 0,0 -9.109272,8.443265 c 0.173166,0.06466 0.330459,0.117902 0.527338,0.197262 0.182239,0.07347 0.350232,0.140545 0.474604,0.189451 0.06219,0.02419 0.111679,0.04389 0.150389,0.05859 0.01822,0.0068 0.03598,0.01229 0.05078,0.01758 0,0 0.002,0.002 0.002,0.002 0,0 0.002,0 0.002,0 0,0 0.002,0 0.002,0 0.0056,0.0026 0.0099,0.0052 0.01953,0.0098 -5.67e-4,-0.0012 -0.002,-0.0031 -0.0039,-0.0039 0.0028,9.45e-4 0.0043,8.23e-4 0.0078,0.002 0.0063,0.002 0.01215,0.0056 0.02734,0.0098 0.006,0.0016 0.01224,0.0044 0.01953,0.0078 -0.0035,-7.45e-4 -0.01692,7.94e-4 -0.01953,0 0.03496,0.01701 0.07668,0.03832 0.132811,0.06641 0.133522,0.06675 0.315652,0.157604 0.515619,0.259763 0.5141,0.262577 0.994291,0.531349 1.464828,0.816397 z m 0,0 -15.3631076,1.9824 c -0.1753699,0.966897 -0.3522976,2.074137 -0.474604,2.988247 -0.066545,0.497362 -0.1191674,0.933132 -0.1484358,1.255846 -0.014342,0.158221 -0.023032,0.286619 -0.02539,0.392573 -4.67e-5,0.0021 4.19e-5,0.0057 0,0.0078 -5.867e-4,0.04366 0.00101,0.08349 0.00586,0.130859 0.00286,0.02789 0.00422,0.05683 0.019531,0.107419 0.015307,0.0506 0.00294,0.153691 0.2265599,0.279294 0.1206714,0.06778 0.1380296,0.05402 0.1679669,0.06055 0.029934,0.0065 0.051831,0.01203 0.076171,0.01563 0.048684,0.0072 0.1011302,0.01187 0.1601544,0.01758 0.1180485,0.01145 0.2635785,0.02159 0.4179641,0.0293 0.223743,0.01113 0.4829723,0.03573 0.7382728,0.06055 z m 0,0 -13.288913,-6.158133 c -0.437183,1.258478 -0.8250605,2.555151 -1.1699079,3.939408 z m 0,0 -8.76162,-15.515449 c -1.063786,1.635556 -1.985678,3.308985 -2.785124,5.027287 z"/>
 <path style="opacity:0.2;fill:#ffffff" d="m 24.056814,4.0007688 c -0.141217,-0.00393 -0.277232,0.047923 -0.374995,0.1406234 -1.410582,1.337726 -2.844885,2.8388486 -4.140578,4.2675298 -0.0015,0.00179 -0.0024,0.0021 -0.0039,0.00391 -3.192909,3.618806 -5.620063,7.337027 -7.378823,11.318232 -1.638343,3.708624 -2.5968948,6.918153 -3.4687104,11.591665 -0.1909169,1.023422 -0.3825265,2.263775 -0.5156192,3.261681 -0.066552,0.49895 -0.1191744,0.936004 -0.1484428,1.259748 -0.014627,0.161875 -0.023236,0.294913 -0.02539,0.402339 -0.00108,0.05371 1.459e-4,0.09845 0.00586,0.154296 0.00286,0.02789 0.00422,0.05683 0.019531,0.107419 0.00632,0.02088 0.0139,0.05522 0.029297,0.0918 0.030368,-0.295018 0.065493,-0.613381 0.1191392,-1.015613 0.1330927,-0.997907 0.3247023,-2.23826 0.5156192,-3.261681 0.8718156,-4.673512 1.830368,-7.883042 3.468711,-11.591666 1.75876,-3.981205 4.185914,-7.699426 7.378822,-11.318231 0.0015,-0.0018 0.0024,-0.00211 0.0039,-0.00391 1.295694,-1.4286811 2.729996,-2.9298038 4.140578,-4.2675297 0.09777,-0.0927 0.233779,-0.1445541 0.374995,-0.1406234 0.134797,0.00379 0.262611,0.057896 0.353512,0.1484358 1.816606,1.8021453 3.481432,3.745487 5.203066,5.5975923 0.0062,0.0067 0.01183,0.01453 0.01758,0.02148 2.55771,3.093462 4.698399,6.509346 6.19329,9.892466 1.6594,3.755429 2.648705,7.077419 3.519491,11.792835 0.146417,0.792826 0.308892,1.836788 0.435542,2.753875 0.07599,0.550447 0.130742,0.998194 0.16992,1.376938 0.02991,-0.05836 0.05085,-0.121178 0.05078,-0.189451 v -0.171873 c 4e-6,-0.358457 -0.09409,-1.098505 -0.220701,-2.015602 -0.12665,-0.917088 -0.289125,-1.961049 -0.435542,-2.753875 -0.870786,-4.715531 -1.860091,-8.037406 -3.519491,-11.792836 -1.49489,-3.383119 -3.635579,-6.799004 -6.19329,-9.892465 -0.0057,-0.00695 -0.01142,-0.014832 -0.01758,-0.021484 -1.721628,-1.8521024 -3.386454,-3.7954441 -5.20306,-5.5975894 -0.0909,-0.090539 -0.218714,-0.1446412 -0.353511,-0.1484358 z"/>
</svg>
